site/public/svg-catalog/side-table-001.svg

<svg xmlns="http://www.w3.org/2000/svg" viewBox="0 0 600 600"><desc>Table top with four corner leg cutouts subtracted via difference boolean.</desc><path fill="currentColor" d="M0 0h600v600H0zm25 25v50h50V25zm0 500v50h50v-50zM525 25v50h50V25zm0 500v50h50v-50z" class="side-table-001" style="--block-fill-primary:currentColor;--block-stroke-accent:var(--block-stroke-accent, currentColor)"/></svg>

<svg xmlns="http://www.w3.org/2000/svg" viewBox="0 0 600 600" width="600" height="600" data-block-variant="difference"><title>Side Table</title><desc>Table top with four corner leg cutouts subtracted via difference boolean.</desc><g><path d="M 0 0 L 600 0 L 600 600 L 0 600 L 0 0 Z M 25 25 L 25 75 L 75 75 L 75 25 L 25 25 Z M 25 525 L 25 575 L 75 575 L 75 525 L 25 525 Z M 525 25 L 525 75 L 575 75 L 575 25 L 525 25 Z M 525 525 L 525 575 L 575 575 L 575 525 L 525 525 Z" fill="currentColor" stroke="var(--block-stroke-accent, currentColor)" class="side-table-001"/></g></svg>
